!!!COM: Mozart, Wolfgang Amadeus
!!!OPR: Quartet in D Major
!!!OTL:
!!!OMV: 3
!!!SCT: K 499
!!!SCA: Chronologisch-thematisches Verzeichnis sämtlicher Tonwerke Wolfgang Amade Mozarts (L. von Köchel; 1862, 2/1905, 3/1937, 1947)
!!!YOR: Breitkopf & Härtel Edition
!!!EED: Frances Bennion
!!!ENC: Frances Bennion
!!!CDT: 1756/1/27/-1791/12/5/
!!!OCY: Österreich
!!!YEC: Copyright (c) 1994, 2000 Center for Computer Assisted Research in the Humanities
!!!YEM: Rights to all derivative editions reserved.
!!!YEM: Refer to licensing agreement for further details.
!!!YEN: United States of America
**kern	**kern	**kern	**kern
*k[f#]	*k[f#]	*k[f#]	*k[f#]
*G:	*G:	*G:	*G:
*clefG	*clefG	*clefF	*clefC
*M3/4	*M3/4	*M3/4	*M3/4
*tb96	*tb96	*tb96	*tb96
=1	=1	=1	=1
4dd	4b	4g	4G
8b	8g	2r	2r
16.r	16.r	.	.
32b	32g	.	.
8.dd	8.b	.	.
16b	16g	.	.
=2	=2	=2	=2
8.cc	8.a	4e	4C
64dd	64b	.	.
64cc	64a	.	.
64b	64g#	.	.
64cc	64a	.	.
8ee	8cc	4..r	2r
16.r	16.r	.	.
32e	32A	.	.
8.cc	8.e	.	.
16a	16c	32r	.
.	.	32e	.
=3	=3	=3	=3
4..g	4..B	[2d	8..r
.	.	.	32C#
.	.	.	[2D
16f#	16A	.	.
8.ee	8.cc	8.d]	.
16dd	16b	16F#	.
=4	=4	=4	=4
4..cc	4.a	4.f#	8..D]
.	.	.	32d
.	.	.	4.d#
.	4a	4f#	.
16b	.	.	.
16a#	.	.	.
16b	.	.	.
16cc	8a	8f#	8d#
16b	.	.	.
=5	=5	=5	=5
8.b	4g	[2g	4e
16ff	.	.	.
4ff	4b	.	4d
16r	4r	4g_	4r
16ff	.	.	.
16aa	.	.	.
16ff	.	.	.
=6	=6	=6	=6
4dd#	4b	2.g_	8r
.	.	.	8c
[4ee	[4cc	.	8c
.	.	.	8c
16ee]	16cc]	.	8c
16ee	16cc	.	.
16gg	16ee	.	8c
16ee	16cc	.	.
=7	=7	=7	=7
[4dd	16b	2.g]	8G
.	16g	.	.
.	16d	.	8G
.	16c	.	.
16dd]	16B	.	8G
32ee	16d	.	.
32dd	.	.	.
32cc	16g	.	8G
32b	.	.	.
32a	16B	.	.
32g	.	.	.
32ee	16c	.	8C
32ff#	.	.	.
32gg	16e	.	.
32ff#	.	.	.
32aa	16g	.	8C
32gg	.	.	.
32ff#	16cc	.	.
32ee	.	.	.
=8	=8	=8	=8
16dd	16b	2.g	8GG
16bb	16dd	.	.
16aa	16b	.	8GG
16gg	16g	.	.
16ff#	16d	.	8GG
16ff	16B	.	.
16ee	16G	.	8GG
16dd#	16B	.	.
32ee	16c	.	8CC
32ff#	.	.	.
32gg	16e	.	.
32ff#	.	.	.
32aa	16g	.	8CC
32gg	.	.	.
32ff#	16cc	.	.
32ee	.	.	.
=9	=9	=9	=9
[4dd	[4b	16g	2.DD
.	.	16dd	.
.	.	16b	.
.	.	16g	.
16dd]	16b]	[4d	.
16cc#	16a#	.	.
16cc	16a	.	.
16b	16g	.	.
16a	4f#	4d 4c]	.
32cc	.	.	.
32b	.	.	.
32dd	.	.	.
32cc	.	.	.
32ee	.	.	.
32dd	.	.	.
=10	=10	=10	=10
[8dd	4g	4d 4B	4GG
32dd]	.	.	.
32b	.	.	.
32cc	.	.	.
32a	.	.	.
8g	8..r	8..r	8r
4.r	.	.	8G
.	32d	32B	.
.	16e	16c	8C
.	16cc	16e	.
.	16a	16c	8D
.	16f#	16A	.
=11	=11	=11	=11
4.gg	4.g	4d	4B
.	.	8B	8G
4gg	4g	16.r	16.r
.	.	32B	32G
.	.	8.d	8.B
[8gg	[8g	.	.
.	.	16B	16G
=12	=12	=12	=12
8gg]	8g]	8.c	8.A
4eee	4ee	.	.
.	.	64d	64B
.	.	64c	64A
.	.	64B	64G#
.	.	64c	64A
.	.	8e	8c
32ddd	32dd	16.r	16.r
16.ccc	16.cc	.	.
.	.	32E	32AA
32bb	32b	8.c	8.E
16.aa	16.a	.	.
32ccc	32cc	.	.
16.aa	16.a	.	.
.	.	16A	16C
=13	=13	=13	=13
8.ddd	8.dd	4..G	4..BB
32bb	32b	.	.
32gg	32g	.	.
8dd	8d	.	.
8.dd	4d	.	.
.	.	16F#	16AA
.	.	8.e	8.c
16ee-	.	.	.
16ee	8d	.	.
16ff	.	16d	16B
=14	=14	=14	=14
8.ff#	8.d#	4c	4A
32ee	32c#	.	.
32ff#	32d#	.	.
8gg	8e	8B	8G
8gg	8e	8B	8G
8aa	8f#	8A	8F#
8bb	8g	8G	8E
=15	=15	=15	=15
[4dd	16g	16e	8AA
.	16f#	16d#	.
.	16g	16e	8A
.	16f#	16d#	.
16dd]	8g	8e	8A
16cc#	.	.	.
16ff#	8r	8r	8A
16ee	.	.	.
16dd	8g	8e	8A
16cc#	.	.	.
16gg	8r	8r	8A
16ff#	.	.	.
=16	=16	=16	=16
[4ee	16a	16f#	8AA
.	16g#	16e#	.
.	16a	16f#	8A
.	16g#	16e#	.
16ee]	8a	8f#	8A
16dd	.	.	.
16gg	8r	8r	8A
16ff#	.	.	.
16ee	8a	8f#	8A
16dd	.	.	.
16aa	8r	8r	8A
16gg	.	.	.
=17	=17	=17	=17
[4ff#	16g	16c#	8AA
.	16f#	16d	.
.	16g	16c#	8A
.	16f#	16d	.
16ff#]	8g	8c#	8A
16ee	.	.	.
16aa	8r	8r	8A
16gg	.	.	.
16ff#	8cc#	8g	8A
16ee	.	.	.
16bb	8r	8r	8A
16aa	.	.	.
=18	=18	=18	=18
[4gg	16dd	16a	8AA
.	16cc#	16b-	.
.	16dd	16a	8A
.	16cc#	16b-	.
16gg]	8dd	8a	8A
16ff#	.	.	.
16bb	8r	8r	8A
16aa	.	.	.
16gg	8dd	8a	8A
16ff#	.	.	.
16ccc#	8r	8r	8A
16bb	.	.	.
=19	=19	=19	=19
[4aa	16dd	16f	8AA
.	16cc#	16e	.
.	16dd	16f	8A
.	16cc#	16e	.
16aa]	8dd	8f	8A
16gg#	.	.	.
16ccc#	8r	8r	8A
16bb	.	.	.
16aa	8dd	8b	8A
16gg#	.	.	.
16ddd	8r	8r	8A
16ccc#	.	.	.
=20	=20	=20	=20
16bb	4cc#	4e	[4A
16aa	.	.	.
16aa	.	.	.
16aa	.	.	.
16gg#	2r	2r	16A]
16aa	.	.	16G#
16aa	.	.	16B
16aa	.	.	16A
16bb	.	.	16G
16aa	.	.	16F#
16aa	.	.	16E
16aa	.	.	16D
=21	=21	=21	=21
32aa	[4gg	[4e	8C#
32ccc#	.	.	.
32eee	.	.	.
32ccc#	.	.	.
16aa	.	.	8E
16aa	.	.	.
4..aa	16gg]	16e]	8AA
.	16ff#	16d#	.
.	16aa	16f#	4.r
.	16gg	16e	.
.	16ff#	16a	.
.	16ee	16g	.
.	16dd	16f#	.
16aa	16cc#	16e	.
=22	=22	=22	=22
16bb	8dd	8f#	[4A
16aa	.	.	.
16aa	16ee	16cc#	.
16aa	32dd	32b	.
.	32ee	32cc#	.
16gg#	8ff#	8dd	16A]
16aa	.	.	16G#
16aa	4.r	4.r	16B
16aa	.	.	16A
16bb	.	.	16G
16aa	.	.	16F#
16aa	.	.	16E
16aa	.	.	16D
=23	=23	=23	=23
32aa	[4gg	[4e	8C#
32ccc#	.	.	.
32eee	.	.	.
32ccc#	.	.	.
16aa	.	.	8E
16aa	.	.	.
4..aa	16gg]	16e]	8AA
.	16ff#	16d#	.
.	16aa	16f#	4.r
.	16gg	16e	.
.	16ff#	16a	.
.	16ee	16g	.
.	16dd	16f#	.
16aa	16cc#	16e	.
=24	=24	=24	=24
16aa	4dd	4f#	8D
16ddd	.	.	.
16ddd	.	.	8D
16ddd	.	.	.
16ddd	4cc	4a	8D
16ff#	.	.	.
16ff#	.	.	8D
16ff#	.	.	.
16ff#	4b	4g	8D
16bb	.	.	.
16bb	.	.	8D
16bb	.	.	.
=25	=25	=25	=25
16bb	8.gg	4c#	8D
16ee	.	.	.
16ee	.	.	8D
16ee	16ee	.	.
16ee	4cc#	4e	8D
16gg	.	.	.
16gg	.	.	8D
16gg	.	.	.
16gg	4dd	4A	8D
16ff#	.	.	.
16ff#	.	.	8D
16ff#	.	.	.
=26	=26	=26	=26
16ff#	16r	16r	8G
16ee	16b	16g	.
16ee	16b	16g	8r
16ee	16b	16g	.
16ee	16b	16g	8A
16dd	16a	16f#	.
16dd	16a	16f#	8r
16dd	16a	16f#	.
16dd	16a	16f#	8AA
16cc#	16g	16e	.
16cc#	16g	16e	8r
16cc#	16g	16e	.
=27	=27	=27	=27
4.dd	4f#	4d	16BB
.	.	.	16B
.	.	.	16B
.	.	.	16B
.	[2g	4e	16B
.	.	.	16E
[8cc#	.	.	16E
.	.	.	16E
32cc#]	.	4B	16E
32b	.	.	.
32dd	.	.	16G
32cc#	.	.	.
32ee	.	.	16G
32dd	.	.	.
32cc#	.	.	16G
32b	.	.	.
=28	=28	=28	=28
4a	4g]	4e	16G
.	.	.	16C#
.	.	.	16C#
.	.	.	16C#
8.g	8e	4.A	16C#
.	.	.	16E
.	8c#	.	16E
32f#	.	.	16E
32g	.	.	.
[4f#	8a	.	16E
.	.	.	16D
.	8a#	8d	16D
.	.	.	16D
=29	=29	=29	=29
16f#]	16b	16d	16GG
16e	16d	16B	16G
[8e	16d	16B	16G
.	16d	16B	16G
32e]	8d	8B	8G
32g	.	.	.
32b	.	.	.
32a#	.	.	.
32b	8r	8r	8r
32g	.	.	.
32ee	.	.	.
32dd#	.	.	.
32ee	8b	8d	8G
32b	.	.	.
32gg	.	.	.
32ff#	.	.	.
32gg	8r	8r	8r
32ee	.	.	.
32bb	.	.	.
32aa#	.	.	.
=30	=30	=30	=30
32bb	[2dd	[2e	[2G
32aa#	.	.	.
32bb	.	.	.
32ccc	.	.	.
32ddd	.	.	.
32bb	.	.	.
32aa	.	.	.
32ff#	.	.	.
32gg	.	.	.
32ff#	.	.	.
32gg	.	.	.
32aa	.	.	.
32bb	.	.	.
32gg	.	.	.
32ff#	.	.	.
32dd#	.	.	.
32ff#	8dd]	8e]	8G]
32ee	.	.	.
32gg	.	.	.
32ff#	.	.	.
32ee	8e 8d	8g#	8B
32dd	.	.	.
32cc#	.	.	.
32b	.	.	.
=31	=31	=31	=31
32b	2.f# 2.d	2.a	8A
32a	.	.	.
32g	.	.	.
32f#	.	.	.
32g	.	.	8f#
32a	.	.	.
32b	.	.	.
32cc#	.	.	.
32dd	.	.	8d
64dd	.	.	.
64cc#	.	.	.
32dd	.	.	.
32ee	.	.	.
32ff#	.	.	8A
64ff#	.	.	.
64ee	.	.	.
32ff#	.	.	.
32gg	.	.	.
16aa	.	.	8F#
16bb	.	.	.
16ccc#	.	.	8D
16ddd	.	.	.
=32	=32	=32	=32
32aa	16r	16r	8AA
32gg	.	.	.
32ff#	16dd	16f#	.
32gg	.	.	.
32aa	16dd	16f#	8AA
32bb	.	.	.
32ccc#	16dd	16f#	.
32ddd	.	.	.
2ee	16dd	16g	8AA
.	16dd	16g	.
.	16dd	16g	8AA
.	16dd	16g	.
.	16cc#	16g	8AA
.	16cc#	16g	.
.	16cc#	16g	8AA
.	16cc#	16g	.
=33	=33	=33	=33
4dd	4dd	4f#	4D
4r	4r	4r	4r
8bb 8dd 8g	8gg 8b 8d	8G	8GG
16r	16r	16r	16r
16bb	16gg	16d	16G
=34	=34	=34	=34
4ccc	4aa	4dd	4F#
8bb	8gg	8d	8G
16r	4.r	4.r	4.r
16b	.	.	.
16aa	.	.	.
16gg	.	.	.
16ff#	.	.	.
16ee	.	.	.
=35	=35	=35	=35
[4dd	4.g	4.e	8r
.	.	.	8AA
32dd]	.	.	8A
32cc#	.	.	.
32ee	.	.	.
32dd#	.	.	.
32ff#	4e	4c#	8A
32ee	.	.	.
32gg	.	.	.
32ff#	.	.	.
32aa	.	.	8A
32gg	.	.	.
32bb	.	.	.
32aa#	.	.	.
32ccc#	8cc#	8e	8A
32bb	.	.	.
32aa	.	.	.
32gg	.	.	.
=36	=36	=36	=36
8ee	4cc#	4g	[4D
8ee#	.	.	.
8ff#	8dd	8f#	8D]
8r	8r	8r	8r
8bb 8dd 8g	8gg 8b 8d	8G	8GG
16r	16r	16r	16r
16bb	16gg	16d	16G
=37	=37	=37	=37
8.ddd	4aa	4dd	4F#
16ccc	.	.	.
24bb	8gg	8d	8G
24b	.	.	.
24cc	.	.	.
24cc#	4.r	4.r	4.r
24dd	.	.	.
24dd#	.	.	.
32ee	.	.	.
32ff	.	.	.
32ff#	.	.	.
32gg	.	.	.
32gg#	.	.	.
32aa	.	.	.
32aa#	.	.	.
32bb	.	.	.
=38	=38	=38	=38
[4dd	4.g	[8e	8r
.	.	4e]	8AA
32dd]	.	.	8A
32cc#	.	.	.
32ee	.	.	.
32dd#	.	.	.
32ff#	4e	8c#	8A
32ee	.	.	.
32gg	.	.	.
32ff#	.	.	.
32aa	.	4e	8A
32gg	.	.	.
32bb	.	.	.
32gg	.	.	.
32ff#	8g	.	8A
32ee	.	.	.
32dd	.	.	.
32cc#	.	.	.
=39	=39	=39	=39
4ee	4cc#	4g	[4D
8dd	8dd	8f#	8D]
8b	8g	4.r	4.r
8a	8f#	.	.
8g 8A	8e 8c#	.	.
=40	=40	=40	=40
4f# 4d	4d	4A	4F#
2r	2r	8F#	8D
.	.	16.r	16.r
.	.	32F#	32D
.	.	8.A	8.F#
.	.	16F#	16D
=41	=41	=41	=41
4dd	4b	8.B	8.G
.	.	64c	64A
.	.	64B	64G
.	.	64A	64F#
.	.	64B	64G
8b	8g	8d	8B
16.r	16.r	4.r	4.r
32b	32g	.	.
8.dd	8.b	.	.
16b	16g	.	.
=42	=42	=42	=42
8.ee	8.cc#	4G	4E
64ff#	64dd	.	.
64ee	64cc#	.	.
64dd	64b	.	.
64ee	64cc#	.	.
8gg	8ee	8E	8C#
4.r	4.r	16.r	16.r
.	.	32E	32C#
.	.	8.G	8.E
.	.	16E	16C#
=43	=43	=43	=43
4a	4f#	8.A	8.F#
.	.	64B	64G
.	.	64A	64F#
.	.	64G	64E
.	.	64A	64F#
8f#	8d#	8c	8A
16.r	16.r	4.r	4.r
32f#	32d#	.	.
8.a	8.f#	.	.
16f#	16d#	.	.
=44	=44	=44	=44
16b	2e	4B	8G
16bb	.	.	.
16bb	.	.	8G
16bb	.	.	.
16bb	.	4c#	8F#
16aa#	.	.	.
16aa#	.	.	8F#
16aa#	.	.	.
16aa#	4a#	4e	8C
16ee	.	.	.
16ee	.	.	8C
16ee	.	.	.
=45	=45	=45	=45
16dd#	8a	4f#	8BB
16aa	.	.	.
16aa	8dd#	.	8BB
16aa	.	.	.
16aa	8ee	4B	8E
16gg#	.	.	.
16gg#	4b	.	8E
16gg#	.	.	.
16gg#	.	4e	8E
16gg	.	.	.
16gg	8ee	.	8E
16gg	.	.	.
=46	=46	=46	=46
16gg	16r	16r	8A
16ff#	16cc	16a	.
16ff#	16cc	16a	8r
16ff#	16cc	16a	.
16ff#	16cc	16a	8B
16ee	16b	16g	.
16ee	16b	16g	8r
16ee	16b	16g	.
16ee	16b	16g	8BB
16dd#	16a	16f#	.
16dd#	16a	16f#	8r
16dd#	16a	16f#	.
=47	=47	=47	=47
4.ee	4g	4e	16C
.	.	.	16c
.	.	.	16c
.	.	.	16c
.	4a	4f#	16c
.	.	.	16F#
8dd#	.	.	16F#
.	.	.	16F#
8.b	4g#	4d	16F#
.	.	.	16B
.	.	.	16B
16cc#	.	.	16B
=48	=48	=48	=48
8dd	[4g	[4e	16B
.	.	.	16E
8cc#	.	.	16E
.	.	.	16E
4cc	16g]	16e]	16E
.	16f#	16d#	16A
.	16f#	16d#	16A
.	16f#	16d#	16A
4b	16f#	16d#	16A
.	16g	16e	16G
.	16g	16e	16G
.	16g	16e	16G
=49	=49	=49	=49
16b	8c	16g	8A
16a	.	16f#	.
16a	8r	16f#	8r
16a	.	16f#	.
16a	8B	16f#	8B
16g	.	16e	.
16g	8r	16e	8r
16g	.	16e	.
16g	4G	16e	8BB
16f	.	16d	.
16f	.	16d	8r
16f	.	16d	.
=50	=50	=50	=50
8f	16G	8d	8C
.	16g	.	.
[4e	16g	8c	8C
.	16g	.	.
.	16g	8r	8C
.	16B-	.	.
16e]	16B-	8G	8C
16f#	16B-	.	.
8g	16B-	8E	8C#
.	16A	.	.
8g	16A	[8e	8C#
.	16A	.	.
=51	=51	=51	=51
8g	16A	8e]	8D
.	16a	.	.
[4f#	16a	8d	8D
.	16a	.	.
.	16a	8r	8D
.	16c	.	.
16f#]	16c	8A	8D
16g	16c	.	.
8a	16c	8F#	8D#
.	16B	.	.
8a	16B	[8f#	8D#
.	16B	.	.
=52	=52	=52	=52
8a	16B	8f#]	8E
.	16b	.	.
[4g	16b	8e	8E
.	16b	.	.
.	16b	8r	8E
.	16d	.	.
16g]	16d	8B	8E
16a	16d	.	.
8b	16d	8G	8E
.	16c	.	.
8b	16c	8g	8E
.	16c	.	.
=53	=53	=53	=53
8b	16c	8.f#	16F#
.	16cc	.	16G
4a	16cc	.	16F#
.	16cc	16g	16E
.	8cc	16f#	16D
.	.	16g	16E
8a	8f#	16f#	16D
.	.	16e	16C
8b	8g	16d	16BB
.	.	16e	16C
8cc	8a	16d	16BB
.	.	16c	16AA
=54	=54	=54	=54
4dd	4b	4B	4GG
8b	8g	2r	2r
16.r	16.r	.	.
32b	32g	.	.
16.dd	16.b	.	.
32b	32g	.	.
16.dd	16.b	.	.
32b	32g	.	.
=55	=55	=55	=55
8.cc	8.a	4e	4C
64dd	64b	.	.
64cc	64a	.	.
64b	64g#	.	.
64cc	64a	.	.
8ee	8cc	4..r	2r
16.r	16.r	.	.
32e	32A	.	.
16.dd	16.f	.	.
32cc	32e	.	.
16.b	16.d	.	.
.	.	32r	.
32a	32c	32e	.
=56	=56	=56	=56
4..g	4..B	[2d	8..r
.	.	.	32C#
.	.	.	[2D
16f#	16A	.	.
8.ee	8.cc	8.d]	.
16dd	16b	16F#	.
=57	=57	=57	=57
4..cc	4.a	4.f#	8..D]
.	.	.	32d
.	.	.	4.d#
.	4a	4f#	.
16b	.	.	.
16a#	.	.	.
16b	.	.	.
16cc	8a	8f#	8d#
16b	.	.	.
=58	=58	=58	=58
8.b	4g	[2g	4e
16ff	.	.	.
4ff	4b	.	4d
16r	4r	4g_	4r
16ff	.	.	.
16aa	.	.	.
16ff	.	.	.
=59	=59	=59	=59
4dd#	4b	2.g_	8r
.	.	.	8c
[4ee	[4cc	.	8c
.	.	.	8c
16ee]	16cc]	.	8c
16ee	16cc	.	.
16gg	16ee	.	8c
16ee	16cc	.	.
=60	=60	=60	=60
[4dd	16b	2.g_	8G
.	16g	.	.
.	16d	.	8G
.	16c	.	.
16dd]	16B	.	8G
32ee	16d	.	.
32dd	.	.	.
32cc	16g	.	8G
32b	.	.	.
32a	16B	.	.
32g	.	.	.
32ee	16c	.	8C
32ff#	.	.	.
32gg	16e	.	.
32ff#	.	.	.
32aa	16g	.	8C
32gg	.	.	.
32ff#	16cc	.	.
32ee	.	.	.
=61	=61	=61	=61
16dd	16b	2.g_	8GG
16bb	16dd	.	.
16aa	16b	.	8GG
16gg	16g	.	.
16ff#	16d	.	8GG
16ff	16B	.	.
16ee	16G	.	8GG
16dd#	16B	.	.
32ee	16c	.	8CC
32ff#	.	.	.
32gg	16e	.	.
32ff#	.	.	.
32aa	16g	.	8CC
32gg	.	.	.
32ff#	16cc	.	.
32ee	.	.	.
=62	=62	=62	=62
[4dd	[4b	16g]	2.DD
.	.	16dd	.
.	.	16b	.
.	.	16g	.
16dd]	16b]	[4d	.
16cc#	16a#	.	.
16cc	16a	.	.
16b	16g	.	.
16a	4f#	4d 4c]	.
32cc	.	.	.
32b	.	.	.
32dd	.	.	.
32cc	.	.	.
32ee	.	.	.
32dd	.	.	.
=63	=63	=63	=63
[8dd	4g	4d 4B	4GG
32dd]	.	.	.
32b	.	.	.
32cc	.	.	.
32a	.	.	.
8g	8r	8r	8r
4.r	8G	8d	8B
.	8g	8e	8c
.	8g	8f	8d
=64	=64	=64	=64
4.cc	4.c	4g	4e
.	.	8e	8c
4cc	4c	16.r	16.r
.	.	32e	32c
.	.	16.g	16.e
.	.	32e	32c
[8cc	[8c	16.g	16.e
.	.	32e	32c
=65	=65	=65	=65
8cc]	8c]	8.f	8.d
8.aa	8.a	.	.
.	.	64g	64e
.	.	64f	64d
.	.	64e	64c#
.	.	64f	64d
.	.	8a	8f
16cc#	16c#	.	.
16dd	16d	16.r	16.r
16cc#	16c#	.	.
.	.	32A	32D
16dd	16d	32g	32B-
.	.	16.f	16.A
16ee	16e	.	.
16ff	16f	32e	32G
.	.	16.d	16.F
16ff#	16f#	.	.
=66	=66	=66	=66
8.gg	8.g	4..c	4..E
32ee	32e	.	.
32cc	32c	.	.
8g	8G	.	.
8.g	4G	.	.
.	.	16B	16D
.	.	8.a	8.f
16a-	.	.	.
16a	8G	.	.
16b-	.	16g	16e
=67	=67	=67	=67
8.b	4G#	4f	4d
32a	.	.	.
32b	.	.	.
8cc	8A	8e	8c
8cc	8A	8E	8C
8dd	8B	8D	8BB
8ee	8c	8C	8AA
=68	=68	=68	=68
[4g	16c	16A	8DD
.	16B	16G#	.
.	16c	16A	8D
.	16B	16G#	.
16g]	8c	8A	8D
16f#	.	.	.
16b	8r	8r	8D
16a	.	.	.
16g	8c	8A	8D
16f#	.	.	.
16cc	8r	8r	8D
16b	.	.	.
=69	=69	=69	=69
[4a	16d	16B	8DD
.	16c#	16A#	.
.	16d	16B	8D
.	16c#	16A#	.
16a]	8d	8B	8D
16g	.	.	.
16cc	8r	8r	8D
16b	.	.	.
16a	8d	8B	8D
16g	.	.	.
16dd	8r	8r	8D
16cc	.	.	.
=70	=70	=70	=70
[4b	16f#	16c	8DD
.	16g	16B	.
.	16f#	16c	8D
.	16g	16B	.
16b]	8f#	8c	8D
16a	.	.	.
16dd	8r	8r	8D
16cc	.	.	.
16b	8f#	8c	8D
16a	.	.	.
16ee	8r	8r	8D
16dd	.	.	.
=71	=71	=71	=71
[4cc	16g	16d	8DD
.	16f#	16e-	.
.	16g	16d	8D
.	16f#	16e-	.
16cc]	8g	8d	8D
16b	.	.	.
16ee	8r	8r	8D
16dd	.	.	.
16cc	8g	8d	8D
16b	.	.	.
16ff#	8r	8r	8D
16ee	.	.	.
=72	=72	=72	=72
[4dd	16g	16B-	8DD
.	16f#	16A	.
.	16g	16B-	8D
.	16f#	16A	.
16dd]	8g	8B-	8D
16cc#	.	.	.
16ff#	8r	8r	8D
16ee	.	.	.
16dd	8g	8e	8D
16cc#	.	.	.
16gg	8r	8r	8D
16ff#	.	.	.
=73	=73	=73	=73
16ee	4f#	4A	[4D
16dd	.	.	.
16dd	.	.	.
16dd	.	.	.
16cc#	2r	2r	16D]
16dd	.	.	16C#
16dd	.	.	16E
16dd	.	.	16D
16ee	.	.	16C
16dd	.	.	16BB
16dd	.	.	16AA
16dd	.	.	16GG
=74	=74	=74	=74
32dd	[4cc	[4A	8FF#
32ff#	.	.	.
32aa	.	.	.
32ff#	.	.	.
16dd	.	.	8AA
16dd	.	.	.
4..dd	16cc]	16A]	8DD
.	16b	16G#	.
.	16dd	16B	4.r
.	16cc	16A	.
.	16b	16d	.
.	16a	16c	.
.	16g	16B	.
16ddd	16f#	16A	.
=75	=75	=75	=75
16eee	8g	8B	[4d
16ddd	.	.	.
16ddd	16a	16f#	.
16ddd	32g	32e	.
.	32a	32f#	.
16ccc#	8b	8g	16d]
16ddd	.	.	16c#
16ddd	4.r	4.r	16e
16ddd	.	.	16d
16eee	.	.	16c
16ddd	.	.	16B
16ddd	.	.	16A
16ddd	.	.	16G
=76	=76	=76	=76
32ddd	[4ccc	[4a	8F#
32fff#	.	.	.
32aaa	.	.	.
32fff#	.	.	.
16ddd	.	.	8A
16ddd	.	.	.
4..ddd	16ccc]	16a]	8D
.	16bb	16g#	.
.	16ddd	16b	4.r
.	16ccc	16a	.
.	16bb	16dd	.
.	16aa	16cc	.
.	16gg	16b	.
16ddd	16ff#	16a	.
=77	=77	=77	=77
16ddd	4gg	4b	8GG
16ggg	.	.	.
16ggg	.	.	8G
16ggg	.	.	.
16ggg	4ff	4dd	8G
16bb	.	.	.
16bb	.	.	8G
16bb	.	.	.
16bb	4ee	[4cc	8G
16eee	.	.	.
16eee	.	.	8G
16eee	.	.	.
=78	=78	=78	=78
16eee	4ff#	8.cc]	8G
16aa	.	.	.
16aa	.	.	8G
16aa	.	16a	.
16aa	4ee-	4f#	8G
16ccc	.	.	.
16ccc	.	.	8G
16ccc	.	.	.
16ccc	4dd	4g	8G
16bb	.	.	.
16bb	.	.	8G
16bb	.	.	.
=79	=79	=79	=79
16bb	16r	16r	8c
16aa	16ee	16cc	.
16aa	16ee	16cc	8r
16aa	16ee	16cc	.
16aa	16ee	16cc	8d
16gg	16dd	16b	.
16gg	16dd	16b	8r
16gg	16dd	16b	.
16gg	16dd	16b	8D
16ff#	16cc	16a	.
16ff#	16cc	16a	8r
16ff#	16cc	16a	.
=80	=80	=80	=80
4.gg	4b	4g	16E
.	.	.	16e
.	.	.	16e
.	.	.	16e
.	[2cc	4a	16e
.	.	.	16A
[8ff#	.	.	16A
.	.	.	16A
32ff#]	.	4e	16A
32ee	.	.	.
32gg	.	.	16c
32ff#	.	.	.
32aa	.	.	16c
32gg	.	.	.
32ff#	.	.	16c
32ee	.	.	.
=81	=81	=81	=81
4dd	4cc]	4a	16c
.	.	.	16F#
.	.	.	16F#
.	.	.	16F#
8.cc	8a	4.d	16F#
.	.	.	16A
.	8f#	.	16A
32b	.	.	16A
32cc	.	.	.
[4b	8dd	.	16A
.	.	.	16G
.	8dd#	[8g	16G
.	.	.	16G
=82	=82	=82	=82
16b]	16ee	16g]	16C
16a	16g	16e	16c
[8a	16g	16e	16c
.	16g	16e	16c
32a]	8g	8e	8c
32b	.	.	.
32a	.	.	.
32g#	.	.	.
32a	8r	8r	8r
32b	.	.	.
32cc	.	.	.
32b	.	.	.
32cc	8a	8g	8e
32dd	.	.	.
32ee	.	.	.
32dd	.	.	.
32ff	8r	8r	8r
32ee	.	.	.
32dd	.	.	.
32cc	.	.	.
=83	=83	=83	=83
16cc	16ff	16g	16D
16b	16g	16f	16d
[8b	16g	16f	16d
.	16g	16f	16d
32b]	8g	8f	8d
32cc	.	.	.
32b	.	.	.
32a	.	.	.
32b	8r	8r	8r
32cc	.	.	.
32dd	.	.	.
32cc#	.	.	.
32dd	8b	8g	8f
32ee	.	.	.
32ff	.	.	.
32ee	.	.	.
32gg	8r	8r	8r
32ff	.	.	.
32ee	.	.	.
32dd	.	.	.
=84	=84	=84	=84
16dd	16gg	16B	16EE
16cc	16g	16c	16E
[8cc	16g	16c	16E
.	16g	16c	16E
32cc]	8g	8c	8E
32dd	.	.	.
32cc	.	.	.
32b	.	.	.
32cc	8r	8r	8r
32dd	.	.	.
32ee	.	.	.
32dd#	.	.	.
32ee	8cc	8e	8G
32ff#	.	.	.
32gg	.	.	.
32ff#	.	.	.
32gg	8r	8r	8r
32aa	.	.	.
32bb-	.	.	.
32aa	.	.	.
=85	=85	=85	=85
[4bb-	16cc#	16g	16E-
.	16c#	16G	16EE-
.	16c#	16G	16EE-
.	16c#	16G	16EE-
32bb-]	8c#	8G	8EE-
32aa	.	.	.
32bb-	.	.	.
32aa	.	.	.
32bb-	8r	8r	8r
32ff#	.	.	.
32gg	.	.	.
32aa	.	.	.
32bb-	8cc#	8g	8e-
32aa	.	.	.
32bb-	.	.	.
32aa	.	.	.
32bb-	8r	8r	8r
32ff#	.	.	.
32gg	.	.	.
32aa	.	.	.
=86	=86	=86	=86
[8bb	8.dd	[8g	16r
.	.	.	16D
32bb]	.	32g]	8.d
32gg	.	32b	.
32ff#	16d	32cc	.
32ccc	.	32a	.
[8bb	8.dd	[8g	.
.	.	.	16D
32bb]	.	32g]	8.d
32gg	.	32b	.
32ff#	16d	32cc	.
32ccc	.	32a	.
32bb	32dd	32g	.
32gg	32b	32d	.
32ff#	32a	32cc	16D
32ccc	32f#	32a	.
32bb	32dd	32g	16d
32gg	32b	32d	.
32ff#	32a	32cc	16D
32ccc	32f#	32a	.
=87	=87	=87	=87
16bb	8dd	8g	8d
16bb	.	.	.
16ccc	2r	2r	2r
16ccc#	.	.	.
16ddd	.	.	.
16ff#	.	.	.
16gg	.	.	.
16aa#	.	.	.
16bb	.	.	.
32ee	.	.	.
32dd#	.	.	.
32ff#	8r	8r	8r
32ee	.	.	.
32gg	.	.	.
32ff#	.	.	.
=88	=88	=88	=88
32aa	16r	16r	8DD
32gg	.	.	.
32g	16d	16B	.
32f#	.	.	.
32a	16g	16B	8DD
32g	.	.	.
32a	16g	16B	.
32g#	.	.	.
2a	16g	16c	8DD
.	16g	16c	.
.	16g	16c	8DD
.	16g	16c	.
.	16f#	16c	8DD
.	16f#	16c	.
.	16f#	16c	8DD
.	16f#	16c	.
=89	=89	=89	=89
4g	4g	4B	4GG
4r	4r	4r	4r
8ee 8g 8c	8cc 8e 8G	8c 8C	8CC
16r	16r	16r	16r
16ee	16cc	16G	16C
=90	=90	=90	=90
4ff	4dd	4g	4BB
8ee	8cc	8G	8C
16r	4.r	4.r	4.r
16e	.	.	.
16dd	.	.	.
16cc	.	.	.
16b	.	.	.
16a	.	.	.
=91	=91	=91	=91
[4g	4.c	4.A	8r
.	.	.	8DD
32g]	.	.	8D
32f#	.	.	.
32a	.	.	.
32g#	.	.	.
32b	4A	4F#	8D
32a	.	.	.
32cc	.	.	.
32b	.	.	.
32dd	.	.	8D
32cc	.	.	.
32ee	.	.	.
32dd#	.	.	.
32ff#	8f#	8A	8D
32ee	.	.	.
32dd	.	.	.
32cc	.	.	.
=92	=92	=92	=92
8a	4f#	4c	[4GG
8a#	.	.	.
8b	8g	8B	8GG]
8r	8r	8r	8r
8ee 8g 8c	8cc 8e 8G	8c 8C	8CC
16r	16r	16r	16r
16ee	16cc	16g	16c
=93	=93	=93	=93
8.gg	4dd	4.g	4B
16ff	.	.	.
8ee	8cc	.	8c
8r	8r	8r	4.r
8ee	8g	8c	.
16r	16r	16r	.
16ee	16g	16c	.
=94	=94	=94	=94
8.gg	2.g#	2.B	16DD
.	.	.	16D
.	.	.	16D
16ff#	.	.	16D
8ff	.	.	16D
.	.	.	16GG#
4ff	.	.	16GG#
.	.	.	16GG#
.	.	.	16GG#
.	.	.	16BB
[8ff	.	.	16BB
.	.	.	16BB
=95	=95	=95	=95
16ff]	[4g	[4B	16BB
16fff	.	.	16DD
16fff	.	.	16DD
16fff	.	.	16DD
16fff	16g]	16B]	16DD
16bb	16ff	16d	16GG
16bb	16ff	16d	16GG
16bb	16ff	16d	16GG
16ddd	16ff	16B	16GG
16ff	16dd	16g	16BB
16ff	16dd	16g	16BB
16ff	16dd	16g	16BB
=96	=96	=96	=96
4dd#	4b	16G	8C
.	.	16g	.
.	.	16g	8C
.	.	16g	.
[4ee	4cc	16g	8C
.	.	16e	.
.	.	16e	8C
.	.	16e	.
32ee]	4r	16e	8C
32ff#	.	.	.
32ee	.	16c	.
32dd#	.	.	.
32ee	.	16c	8C
32gg	.	.	.
32ff#	.	16c	.
32aa	.	.	.
=97	=97	=97	=97
[4gg	16e	4.B-	8C#
.	16ee	.	.
.	16ee	.	8C#
.	16ee	.	.
32gg]	16ee	.	8C#
32aa	.	.	.
32gg	16b-	.	.
32ff#	.	.	.
32gg	16b-	8G	8C#
32bb-	.	.	.
32aa	16b-	.	.
32ccc	.	.	.
8bb-	16b-	8E	8C#
.	16g	.	.
16r	16g	8e	8C#
16bb-	16g	.	.
=98	=98	=98	=98
16bb	8g	8d	8D
16ggg	.	.	.
16ggg	8.r	4..r	2r
16ggg	.	.	.
16ggg	.	.	.
16bb	16b	.	.
16bb	16b	.	.
16ddd	16dd	.	.
16ddd	16dd	.	.
16gg	16g	16G	.
16gg	16g	16G	8r
16bb	16b	16B	.
=99	=99	=99	=99
16bb	16b	16B	16r
16dd	16dd	16d	16D
16dd	16dd	16d	16D
16gg	16gg	16g	16G
16gg	16gg	16g	16G
16b	16b	16B	16BB
16b	16b	16B	16BB
16dd	16dd	16d	16D
16dd	16dd	16d	16D
16g	16g	16G	16GG
16b	16b	16B	16BB
16c#	16c#	16C#	16CC#
=100	=100	=100	=100
[4d	16d	16D	8DD
.	16gg	16b	.
.	16gg	16b	8D
.	16gg	16b	.
32d]	16gg	16b	8D
32g	.	.	.
32a	16b	16g	.
32b	.	.	.
32cc	16b	16g	4.r
32dd	.	.	.
32ee	16dd	16b	.
32ff#	.	.	.
32gg	16dd	16b	.
32aa	.	.	.
32bb	16g	16B	.
32ccc	.	.	.
32ddd	16g	16B	.
32eee	.	.	.
32fff#	16b	16d	.
32ggg	.	.	.
=101	=101	=101	=101
2.aa	8f#	8d	16DD
.	.	.	16C
.	4d	4F#	16C
.	.	.	16C
.	.	.	16C
.	.	.	16FF#
.	4d 4c	8A	16FF#
.	.	.	16AA
.	.	8F#	16AA
.	.	.	16DD
.	8d 8c	8D	16DD
.	.	.	16FF#
=102	=102	=102	=102
4gg	16d 16B	16D	4GG
.	16d	16B	.
.	16d	16B	.
.	16d	16B	.
4r	16c#	16A#	4r
.	16d	16B	.
.	16d	16B	.
.	16d	16B	.
16a	4f#	4c	4D
32cc	.	.	.
32b	.	.	.
32dd	.	.	.
32cc	.	.	.
32ee	.	.	.
32dd	.	.	.
=103	=103	=103	=103
[8dd	16g	16B	8G
.	16d	16B	.
32dd]	16d	16B	4.r
32b	.	.	.
32cc	16d	16B	.
32a	.	.	.
8g	16c#	16A#	.
.	16d	16B	.
8r	16d	16B	.
.	16d	16B	.
32B	4c	4F#	4D
32A	.	.	.
32c	.	.	.
32B	.	.	.
32d	.	.	.
32c	.	.	.
32e	.	.	.
32d	.	.	.
=104	=104	=104	=104
[8d	8B	8G	8GG
32d]	4r	4r	4r
32B	.	.	.
32c	.	.	.
32A	.	.	.
8G	.	.	.
4.r	8gg 8b	8dd	8g
.	8gg 8b	8dd	8g
.	8gg 8b	8dd	8g
=105	=105	=105	=105
[8ddd	4gg 4b	4dd	4g
32ddd]	.	.	.
32bb	.	.	.
32ccc	.	.	.
32aa	.	.	.
8gg	2r	2r	4r
4.r	.	.	.
.	.	.	4r
==	==	==	==
*-	*-	*-	*-
!!!RWG1: This file contains only pitch and duration data.
!!!RWG2: Transposing instruments are not transposed.
!!!RWG3: Spines may have incompatible meters.
!!!RWG4: Durations of rests and tied notes may be interpreted.
!!!RWG: Key is interpreted using the Humdrum key tool.
!!!AFT: stage1
!!!END: 1997/04/15
!!format changes:
!!content changes:
!!public access: complete
!!!KEY: 3409787824
!!!EMD: Converted from MuseData to Humdrum Dec 16, 2000, by Andreas Kornstaedt using muse2kern.
